svgs/regular/light-switch-on.svg

<svg xmlns="http://www.w3.org/2000/svg" viewBox="0 0 384 512"><!-- Font Awesome Pro 6.0.0-alpha2 by @fontawesome - https://fontawesome.com License - https://fontawesome.com/license (Commercial License) --><path d="M320 0H64C28.654 0 0 28.654 0 64V448C0 483.346 28.654 512 64 512H320C355.346 512 384 483.346 384 448V64C384 28.654 355.346 0 320 0ZM336 448C336 456.837 328.837 464 320 464H214.375C211.125 454.375 202.125 448 192 448S172.875 454.375 169.625 464H64C55.163 464 48 456.837 48 448V64C48 55.163 55.163 48 64 48H169.625C172.875 57.625 181.875 64 192 64S211.125 57.625 214.375 48H320C328.837 48 336 55.163 336 64V448ZM240 96H144C117.6 96 96 117.6 96 144V368C96 394.4 117.6 416 144 416H240C266.4 416 288 394.4 288 368V144C288 117.6 266.4 96 240 96ZM240 368H144V272H240V368Z"/></svg>

<svg xmlns="http://www.w3.org/2000/svg" viewBox="0 0 384 512"><!--! Font Awesome Pro 6.0.0-alpha3 by @fontawesome - https://fontawesome.com License - https://fontawesome.com/license (Commercial License) --><path d="M320 0H64c-35.35 0-64 28.65-64 64v384c0 35.35 28.65 64 64 64h256c35.35 0 64-28.65 64-64v-384C384 28.65 355.3 0 320 0zM336 448c0 8.837-7.163 16-16 16h-105.6C211.1 454.4 202.1 448 192 448s-19.12 6.375-22.38 16H64c-8.837 0-16-7.163-16-16V64c0-8.837 7.163-16 16-16h105.6C172.9 57.62 181.9 64 192 64s19.12-6.375 22.38-16H320c8.837 0 16 7.163 16 16V448zM240 95.1h-96c-26.4 0-48 21.6-48 48v223.1c0 26.4 21.6 48 48 48h96c26.4 0 48-21.6 48-48V143.1C288 117.6 266.4 95.1 240 95.1zM240 368h-96v-96h96V368z"/></svg>
